._scraped/app.urodapter.com/img/icons/menu-icon-01.svg

<svg fill="none" height="33" viewBox="0 0 33 33" width="33" xmlns="http://www.w3.org/2000/svg"><path d="m25.4079 22.0108-3.9088-3.9089 5.1392-5.1394c1.4775-1.4775 1.7888-3.78039.756-5.59895-.1433-.25202-.4595-.33603-.7066-.19766-.2471.14331-.336.45958-.1977.70666.8006 1.41334.5584 3.20225-.588 4.35365l-5.1391 5.1394-5.1293-5.1295 5.1392-5.1394c1.1464-1.14648 2.9352-1.38862 4.3534-.58806.2471.14331.5683.05435.7066-.19767.1433-.25203.0544-.5683-.1976-.70667-1.8185-1.03282-4.1212-.71655-5.5987.75608l-5.1392 5.13942-3.9087-3.90893c-.2026-.20261-.5287-.20261-.7313 0s-.2026.52877 0 .73138l3.9087 3.90895-5.40599 5.4062-.35084-.3509c-.7264-.7264-1.91236-.7264-2.6437 0l-3.30585 3.3061c-.7264.7264-.7264 1.9124 0 2.6438l.35085.3508-2.658519 2.6636c-.2026012.2026-.2026012.5288 0 .7314l5.865539 5.8658c.2026.2027.52874.2027.73134 0l2.66346-2.6635.35084.3508c.72637.7264 1.91237.7264 2.64367 0l3.3059-3.306c.7264-.7264.7264-1.9125 0-2.6438l-.3509-.3509 5.406-5.4062 3.9087 3.9089c.2026.2026.5288.2026.7314 0s.2026-.5288 0-.7314zm-10.4364 4.4871-3.3059 3.306c-.3261.3262-.8499.3262-1.1761 0l-4.25953-4.2597c-.2026-.2026-.52874-.2026-.73134 0s-.2026.5287 0 .7313l3.17737 3.1776-2.29778 2.2979-5.12926-5.1295 2.66346-2.6636c.2026-.2026.2026-.5288 0-.7314 0 0-.00989-.0049-.01483-.0099l-.70169-.7017c-.32119-.3212-.32119-.85 0-1.1761l3.30585-3.3061c.32614-.3261.84994-.3261 1.17608 0l.70169.7018s.00494.0099.00988.0148.00988.0049.01482.0099l5.84088 5.8411s.0049.0099.0098.0148c.005.005.0099.005.0149.0099l.7017.7017c.3211.3212.3211.85 0 1.1762zm-.346-2.9897-5.12921-5.1295 5.40601-5.4063 5.1292 5.1295z" fill="#52b2d6"/></svg>

<svg width="33" height="33" viewBox="0 0 33 33" fill="none" xmlns="http://www.w3.org/2000/svg">
<path d="M25.4079 22.0108L21.4991 18.1019L26.6383 12.9625C28.1158 11.485 28.4271 9.18211 27.3943 7.36355C27.251 7.11153 26.9348 7.02752 26.6877 7.16589C26.4406 7.3092 26.3517 7.62547 26.49 7.87255C27.2906 9.28589 27.0484 11.0748 25.902 12.2262L20.7629 17.3656L15.6336 12.2361L20.7728 7.0967C21.9192 5.95022 23.708 5.70808 25.1262 6.50864C25.3733 6.65195 25.6945 6.56299 25.8328 6.31097C25.9761 6.05894 25.8872 5.74267 25.6352 5.6043C23.8167 4.57148 21.514 4.88775 20.0365 6.36038L14.8973 11.4998L10.9886 7.59087C10.786 7.38826 10.4599 7.38826 10.2573 7.59087C10.0547 7.79348 10.0547 8.11964 10.2573 8.32225L14.166 12.2312L8.76001 17.6374L8.40917 17.2865C7.68277 16.5601 6.49681 16.5601 5.76547 17.2865L2.45962 20.5926C1.73322 21.319 1.73322 22.505 2.45962 23.2364L2.81047 23.5872L0.151951 26.2508C-0.0506502 26.4534 -0.0506502 26.7796 0.151951 26.9822L6.01749 32.848C6.22009 33.0507 6.54623 33.0507 6.74883 32.848L9.41229 30.1845L9.76313 30.5353C10.4895 31.2617 11.6755 31.2617 12.4068 30.5353L15.7127 27.2293C16.4391 26.5029 16.4391 25.3168 15.7127 24.5855L15.3618 24.2346L20.7678 18.8284L24.6765 22.7373C24.8791 22.9399 25.2053 22.9399 25.4079 22.7373C25.6105 22.5347 25.6105 22.2085 25.4079 22.0059V22.0108ZM14.9715 26.4979L11.6656 29.8039C11.3395 30.1301 10.8157 30.1301 10.4895 29.8039L6.22997 25.5442C6.02737 25.3416 5.70123 25.3416 5.49863 25.5442C5.29603 25.7468 5.29603 26.0729 5.49863 26.2755L8.676 29.4531L6.37822 31.751L1.24896 26.6215L3.91242 23.9579C4.11502 23.7553 4.11502 23.4291 3.91242 23.2265C3.91242 23.2265 3.90253 23.2216 3.89759 23.2166L3.1959 22.5149C2.87471 22.1937 2.87471 21.6649 3.1959 21.3388L6.50175 18.0327C6.82789 17.7066 7.35169 17.7066 7.67783 18.0327L8.37952 18.7345C8.37952 18.7345 8.38446 18.7444 8.3894 18.7493C8.39434 18.7542 8.39928 18.7542 8.40422 18.7592L14.2451 24.6003C14.2451 24.6003 14.25 24.6102 14.2549 24.6151C14.2599 24.6201 14.2648 24.6201 14.2698 24.625L14.9715 25.3267C15.2926 25.6479 15.2926 26.1767 14.9715 26.5029V26.4979ZM14.6255 23.5082L9.49629 18.3787L14.9023 12.9724L20.0315 18.1019L14.6255 23.5082Z" fill="#52B2D6"/>
</svg>
